icons/media/backward-24.svg

<svg width="24" height="24" viewBox="0 0 24 24" fill="none" xmlns="http://www.w3.org/2000/svg">
<path fill-rule="evenodd" clip-rule="evenodd" d="M22.5826 4.07779C22.327 3.95131 22.0217 3.98076 21.795 4.15379L12.295 11.4038C12.1091 11.5457 12 11.7661 12 12C12 12.2339 12.1091 12.4543 12.295 12.5962L21.795 19.8462C22.0217 20.0192 22.327 20.0487 22.5826 19.9222C22.8382 19.7957 23 19.5352 23 19.25V4.75001C23 4.4648 22.8382 4.20427 22.5826 4.07779ZM21.5 17.7342L13.9862 12L21.5 6.26583V17.7342Z" fill="black"/>
<path fill-rule="evenodd" clip-rule="evenodd" d="M12 12V19.25C12 19.5352 11.8382 19.7957 11.5826 19.9222C11.327 20.0487 11.0217 20.0192 10.795 19.8462L1.29499 12.5962C1.10909 12.4543 1 12.2339 1 12C1 11.7661 1.10909 11.5457 1.29499 11.4038L10.795 4.15379C11.0217 3.98076 11.327 3.95131 11.5826 4.07779C11.8382 4.20427 12 4.4648 12 4.75001V12ZM10.5 17.7342L2.98625 12L10.5 6.26583V17.7342Z" fill="black"/>
</svg>

<svg xmlns="http://www.w3.org/2000/svg" width="24" height="24"><path fill-rule="evenodd" d="M22.583 4.078a.75.75 0 00-.788.076l-9.5 7.25a.75.75 0 000 1.192l9.5 7.25A.75.75 0 0023 19.25V4.75a.75.75 0 00-.417-.672zM21.5 17.734L13.986 12 21.5 6.266v11.468z"/><path fill-rule="evenodd" d="M12 12v7.25a.75.75 0 01-1.205.596l-9.5-7.25a.75.75 0 010-1.192l9.5-7.25A.75.75 0 0112 4.75V12zm-1.5 5.734L2.986 12 10.5 6.266v11.468z"/></svg>
